X: 10402
T: Donald Maclean's
R: jig
M: 6/8
K: Dmajor
|:a|fdd edd|dBA B2A|Bee ede|faa efg|
fdd edd|dBA B2A|Bee caa|fdc d2:|
|:c|dff Bff|dff fed|cee Aee|cee gfe|
dff Bff|dff fed|cee Aaa|fdc d2:|
|:e|faa fed|Bdd dBA|faa fed|Bee ede|
faa fed|Bdd dBA|Bee caa|fdc d2:|

